resources/svg/file-2-fill.svg

<svg fill="currentColor" viewBox="0 0 24 24" xmlns="http://www.w3.org/2000/svg"><path d="M3 9H9C9.55228 9 10 8.55228 10 8V2H20.0017C20.5531 2 21 2.45531 21 2.9918V21.0082C21 21.556 20.5551 22 20.0066 22H3.9934C3.44476 22 3 21.5511 3 20.9925V9ZM3 7L8 2.00318V7H3Z"/></svg>

<svg xmlns="http://www.w3.org/2000/svg" viewBox="0 0 24 24" fill="currentColor">
    <g>
        <path fill="none" d="M0 0h24v24H0z"/>
        <path d="M3 9h6a1 1 0 0 0 1-1V2h10.002c.551 0 .998.455.998.992v18.016a.993.993 0 0 1-.993.992H3.993A1 1 0 0 1 3 20.993V9zm0-2l5-4.997V7H3z"/>
    </g>
</svg>
